icons/svg/tiktok.svg

<svg width="24" height="24" viewBox="0 0 24 24" fill="none" xmlns="http://www.w3.org/2000/svg">
<path d="M17.1385 9.89104L16.8515 10.5839H16.8515L17.1385 9.89104ZM15.8 15.5H15.05H15.8ZM14.7888 18.8334L14.1652 18.4167H14.1652L14.7888 18.8334ZM12.0961 21.0433L11.8091 20.3504H11.8091L12.0961 21.0433ZM8.62945 21.3847L8.77577 20.6491L8.77577 20.6491L8.62945 21.3847ZM5.55735 19.7426L6.08768 19.2123L5.55735 19.7426ZM3.91528 16.6705L4.65087 16.5242L3.91528 16.6705ZM4.25671 13.2039L4.94962 13.4909L4.25671 13.2039ZM6.46657 10.5112L6.04989 9.88758L6.04989 9.88758L6.46657 10.5112ZM8.46662 13.5045L8.04994 12.8809H8.04994L8.46662 13.5045ZM7.58268 14.5816L8.27559 14.8686H8.27559L7.58268 14.5816ZM7.44611 15.9682L6.71052 16.1145L7.44611 15.9682ZM8.10293 17.1971L7.5726 17.7274H7.5726L8.10293 17.1971ZM10.7184 17.7173L11.0054 18.4102L11.0054 18.4102L10.7184 17.7173ZM11.7955 16.8334L12.4191 17.25L12.4191 17.25L11.7955 16.8334ZM12.2 15.5H11.45H12.2ZM16.1349 4.18381L16.8278 3.8968L16.1349 4.18381ZM18.5162 6.56507L18.2292 7.25798H18.2292L18.5162 6.56507ZM19.8005 6.88183L19.8686 6.13493L19.8005 6.88183ZM19.8002 10.49L19.8376 9.74094L19.8002 10.49ZM9.40183 13.1333L9.27741 12.3937L9.40183 13.1333ZM15.8 9.92369H15.05H15.8ZM12.2 2.9L12.95 2.9L12.2 2.9ZM15.8182 2.89945L15.0713 2.96754L15.8182 2.89945ZM9.40027 9.51333L9.35031 8.76499L9.40027 9.51333ZM16.8515 10.5839C17.7782 10.9678 18.763 11.189 19.7627 11.2391L19.8376 9.74094C19.0094 9.69949 18.1934 9.51618 17.4255 9.19813L16.8515 10.5839ZM16.0853 10.2222C16.3343 10.3548 16.59 10.4756 16.8515 10.5839L17.4255 9.19813C17.2088 9.10836 16.997 9.0083 16.7907 8.89839L16.0853 10.2222ZM15.05 9.92369L15.05 15.5H16.55L16.55 9.92369H15.05ZM15.4124 19.2501C16.1541 18.1401 16.55 16.835 16.55 15.5H15.05C15.05 16.5384 14.7421 17.5534 14.1652 18.4167L15.4124 19.2501ZM12.3831 21.7362C13.6165 21.2253 14.6707 20.3601 15.4124 19.2501L14.1652 18.4167C13.5883 19.2801 12.7684 19.953 11.8091 20.3504L12.3831 21.7362ZM8.48313 22.1203C9.7925 22.3808 11.1497 22.2471 12.3831 21.7362L11.8091 20.3504C10.8498 20.7477 9.79417 20.8517 8.77577 20.6491L8.48313 22.1203ZM5.02702 20.273C5.97102 21.217 7.17376 21.8599 8.48313 22.1203L8.77577 20.6491C7.75737 20.4466 6.82191 19.9465 6.08768 19.2123L5.02702 20.273ZM3.17969 16.8169C3.44014 18.1262 4.08302 19.329 5.02702 20.273L6.08768 19.2123C5.35345 18.4781 4.85344 17.5426 4.65087 16.5242L3.17969 16.8169ZM3.5638 12.9169C3.05291 14.1503 2.91924 15.5075 3.17969 16.8169L4.65087 16.5242C4.4483 15.5058 4.55226 14.4502 4.94962 13.4909L3.5638 12.9169ZM6.04989 9.88758C4.93986 10.6293 4.0747 11.6835 3.5638 12.9169L4.94962 13.4909C5.34698 12.5316 6.01989 11.7117 6.88325 11.1348L6.04989 9.88758ZM9.35031 8.76499C8.17348 8.84356 7.03491 9.22941 6.04989 9.88758L6.88325 11.1348C7.64937 10.6229 8.53493 10.3228 9.45023 10.2617L9.35031 8.76499ZM10.55 12.7V9.9H9.04999V12.7H10.55ZM8.8833 14.1281C9.07803 13.998 9.29732 13.9114 9.52626 13.8729L9.27741 12.3937C8.84037 12.4672 8.42172 12.6325 8.04994 12.8809L8.8833 14.1281ZM8.27559 14.8686C8.40047 14.5671 8.61196 14.3094 8.8833 14.1281L8.04994 12.8809C7.53193 13.227 7.12819 13.719 6.88977 14.2945L8.27559 14.8686ZM8.18169 15.8219C8.11803 15.5018 8.1507 15.1701 8.27559 14.8686L6.88977 14.2945C6.65135 14.8701 6.58897 15.5035 6.71052 16.1145L8.18169 15.8219ZM8.63327 16.6667C8.40251 16.436 8.24536 16.142 8.18169 15.8219L6.71052 16.1145C6.83206 16.7256 7.13207 17.2869 7.5726 17.7274L8.63327 16.6667ZM9.47809 17.1183C9.15802 17.0546 8.86402 16.8975 8.63326 16.6667L7.5726 17.7274C8.01314 18.1679 8.57442 18.4679 9.18546 18.5895L9.47809 17.1183ZM10.4314 17.0244C10.1299 17.1493 9.79816 17.182 9.47809 17.1183L9.18546 18.5895C9.7965 18.711 10.4299 18.6486 11.0054 18.4102L10.4314 17.0244ZM11.1719 16.4167C10.9906 16.688 10.7329 16.8995 10.4314 17.0244L11.0054 18.4102C11.581 18.1718 12.073 17.7681 12.4191 17.25L11.1719 16.4167ZM11.45 15.5C11.45 15.8263 11.3532 16.1454 11.1719 16.4167L12.4191 17.25C12.7652 16.732 12.95 16.123 12.95 15.5H11.45ZM12.95 15.5L12.95 2.9L11.45 2.9L11.45 15.5H12.95ZM12.6 3.25H15.4V1.75H12.6V3.25ZM16.8278 3.8968C16.6868 3.55634 16.5984 3.19709 16.5651 2.83137L15.0713 2.96754C15.1183 3.48357 15.243 3.99045 15.442 4.47082L16.8278 3.8968ZM17.6191 5.08094C17.2801 4.74201 17.0113 4.33963 16.8278 3.8968L15.442 4.47082C15.7008 5.09565 16.0802 5.66338 16.5584 6.1416L17.6191 5.08094ZM18.8032 5.87216C18.3604 5.68873 17.958 5.41987 17.6191 5.08094L16.5584 6.1416C17.0366 6.61982 17.6043 6.99917 18.2292 7.25798L18.8032 5.87216ZM19.8686 6.13493C19.5029 6.10159 19.1437 6.01318 18.8032 5.87216L18.2292 7.25798C18.7095 7.45696 19.2164 7.58169 19.7324 7.62873L19.8686 6.13493ZM20.95 10.1V7.3H19.45V10.1H20.95ZM19.7324 7.62873C19.6093 7.61751 19.45 7.50874 19.45 7.3H20.95C20.95 6.64943 20.4317 6.18626 19.8686 6.13493L19.7324 7.62873ZM19.7627 11.2391C20.4365 11.2728 20.95 10.7246 20.95 10.1H19.45C19.45 9.91721 19.6051 9.7293 19.8376 9.74094L19.7627 11.2391ZM9.04999 12.7C9.04999 12.5977 9.0936 12.5168 9.13884 12.4692C9.18096 12.4248 9.2297 12.4017 9.27741 12.3937L9.52626 13.8729C10.0283 13.7884 10.55 13.36 10.55 12.7H9.04999ZM16.7907 8.89839C16.0611 8.5096 15.05 8.98244 15.05 9.92369H16.55C16.55 10.0673 16.4639 10.1738 16.3805 10.2205C16.3011 10.2651 16.189 10.2774 16.0853 10.2222L16.7907 8.89839ZM12.95 2.9C12.95 3.0933 12.7933 3.25 12.6 3.25V1.75C11.9649 1.75 11.45 2.26487 11.45 2.9L12.95 2.9ZM15.4 3.25C15.1912 3.25 15.0825 3.09066 15.0713 2.96754L16.5651 2.83137C16.5137 2.26825 16.0506 1.75 15.4 1.75V3.25ZM9.45023 10.2617C9.20455 10.2781 9.04999 10.079 9.04999 9.9H10.55C10.55 9.27919 10.0368 8.71916 9.35031 8.76499L9.45023 10.2617Z" fill="currentColor"/>
</svg>

<svg xmlns="http://www.w3.org/2000/svg" width="24" height="24" fill="none" viewBox="0 0 24 24"><path fill="currentColor" d="m17.139 9.891-.287.693zM15.8 15.5h-.75zm-1.011 3.333-.624-.416zm-2.693 2.21-.287-.693zm-3.467.342.147-.736zm-3.072-1.642.53-.53zM3.915 16.67l.736-.147zm.342-3.467.693.287zm2.21-2.693-.417-.623zm2 2.994-.417-.624zm-.884 1.077.693.287zm-.137 1.386-.735.146zm.657 1.23-.53.53zm2.615.52.287.692zm1.078-.885.623.417zM12.2 15.5h-.75zm3.935-11.316.693-.287zm2.381 2.381-.287.693zm1.285.317.068-.747zm0 3.608.037-.75zM9.4 13.133l-.124-.74zm6.399-3.21h-.75zM12.2 2.9h.75zm3.618 0-.747.068zM9.4 9.512l-.05-.748zm7.452 1.07a8.8 8.8 0 0 0 2.91.656l.076-1.498a7.3 7.3 0 0 1-2.413-.543zm-.767-.36q.374.199.767.36l.573-1.385a7 7 0 0 1-.634-.3zm-1.035-.3V15.5h1.5V9.924zm.362 9.327a6.75 6.75 0 0 0 1.138-3.75h-1.5a5.25 5.25 0 0 1-.885 2.917zm-3.029 2.486a6.75 6.75 0 0 0 3.03-2.486l-1.248-.833a5.25 5.25 0 0 1-2.356 1.933zm-3.9.384a6.75 6.75 0 0 0 3.9-.384l-.574-1.386a5.25 5.25 0 0 1-3.033.3zm-3.456-1.847a6.75 6.75 0 0 0 3.456 1.847l.293-1.47a5.25 5.25 0 0 1-2.688-1.438zM3.18 16.817a6.75 6.75 0 0 0 1.847 3.456l1.06-1.06a5.25 5.25 0 0 1-1.436-2.689zm.384-3.9a6.75 6.75 0 0 0-.384 3.9l1.47-.293a5.25 5.25 0 0 1 .3-3.033zm2.486-3.03a6.75 6.75 0 0 0-2.486 3.03l1.386.574a5.25 5.25 0 0 1 1.933-2.356zm3.3-1.122a6.75 6.75 0 0 0-3.3 1.123l.833 1.247a5.25 5.25 0 0 1 2.567-.873zm1.2 3.935V9.9h-1.5v2.8zm-1.667 1.428a1.65 1.65 0 0 1 .643-.255l-.249-1.48a3.15 3.15 0 0 0-1.227.488zm-.607.74a1.65 1.65 0 0 1 .607-.74l-.833-1.247a3.15 3.15 0 0 0-1.16 1.413zm-.094.954a1.65 1.65 0 0 1 .094-.953l-1.386-.575a3.15 3.15 0 0 0-.18 1.82zm.451.845a1.65 1.65 0 0 1-.451-.845l-1.471.293a3.15 3.15 0 0 0 .862 1.612zm.845.451a1.65 1.65 0 0 1-.845-.451l-1.06 1.06c.44.44 1.001.74 1.612.863zm.953-.094a1.65 1.65 0 0 1-.953.094l-.293 1.472a3.15 3.15 0 0 0 1.82-.18zm.74-.607a1.65 1.65 0 0 1-.74.607l.574 1.386a3.15 3.15 0 0 0 1.414-1.16zm.279-.917c0 .326-.097.645-.278.917l1.247.833a3.15 3.15 0 0 0 .531-1.75zm1.5 0V2.9h-1.5v12.6zM12.6 3.25h2.8v-1.5h-2.8zm4.228.647a3.7 3.7 0 0 1-.263-1.066l-1.494.137c.047.516.172 1.022.371 1.503zm.791 1.184a3.7 3.7 0 0 1-.791-1.184l-1.386.574a5.2 5.2 0 0 0 1.116 1.67zm1.184.791a3.7 3.7 0 0 1-1.184-.791l-1.06 1.06a5.2 5.2 0 0 0 1.67 1.117zm1.066.263a3.7 3.7 0 0 1-1.066-.263l-.574 1.386c.48.199.987.324 1.503.37zM20.95 10.1V7.3h-1.5v2.8zm-1.218-2.471a.32.32 0 0 1-.282-.329h1.5c0-.65-.518-1.114-1.081-1.165zm.03 3.61A1.135 1.135 0 0 0 20.95 10.1h-1.5c0-.183.155-.37.388-.36zM9.05 12.7c0-.102.044-.183.089-.23a.25.25 0 0 1 .138-.076l.25 1.479c.501-.085 1.023-.513 1.023-1.173zm7.74-3.802c-.729-.388-1.74.084-1.74 1.026h1.5c0 .143-.086.25-.17.297a.31.31 0 0 1-.295.001zM12.95 2.9a.35.35 0 0 1-.35.35v-1.5a1.15 1.15 0 0 0-1.15 1.15zm2.45.35a.32.32 0 0 1-.329-.282l1.494-.137c-.051-.563-.514-1.081-1.165-1.081zm-5.95 7.012a.37.37 0 0 1-.4-.362h1.5c0-.62-.513-1.18-1.2-1.135z"/></svg>
